X: 4297
M: C|
L: 1/8
K: G
|:\
d2d2 efge | ded^c d2B2 | =cdcB c2A2 |\
[1,3 BcBA B2G2 :|[2,4 G2B2G2 z2 |:\
^c2c2 efge | fgfe d2d2 | efed ^cABc |\
[1 d2f2d2 z2 :|[2 d^cde d=c"_D.C."Bc |]


